icons/desktop/16/svg/shield-slash-16.svg

<svg width="16" height="16" viewBox="0 0 16 16" fill="none" xmlns="http://www.w3.org/2000/svg">
<path d="M7.46001 1.62L5.51001 2.68L4.40001 1.57L6.75001 0.3C7.49001 -0.1 8.38001 -0.1 9.12001 0.3L13.97 2.91C14.93 3.43 15.44 4.5 15.24 5.57L14.69 8.54C14.52 9.47 14.24 10.3 13.86 11.03L12.73 9.9C12.94 9.41 13.11 8.87 13.22 8.27L13.77 5.29C13.85 4.86 13.64 4.44 13.26 4.23L8.41001 1.62C8.27001 1.54 8.11001 1.5 7.94001 1.5C7.77001 1.5 7.61001 1.54 7.46001 1.62Z" fill="black"/>
<path d="M8.50001 14.3699C9.87001 13.5999 11.13 12.4099 12.09 11.0299V11.0099L13.16 12.0799C12.09 13.5499 10.73 14.8199 9.24 15.6599C8.86 15.8699 8.43001 15.9799 8.00001 15.9799C7.57001 15.9799 7.14001 15.8799 6.76001 15.6599C5.11001 14.7299 3.60001 13.2999 2.50001 11.6299C1.93001 10.7699 1.53001 9.71994 1.31001 8.51994L0.750005 5.49994C0.560005 4.42994 1.06001 3.36994 2.02001 2.84994L3.25001 2.18994L4.36001 3.29994L2.74001 4.17994C2.36 4.37994 2.15001 4.80994 2.23001 5.23994L2.79 8.25994C2.98001 9.26994 3.3 10.1299 3.76 10.8199C4.73001 12.2899 6.06001 13.5599 7.50001 14.3699C7.81001 14.5499 8.19001 14.5399 8.50001 14.3699Z" fill="black"/>
<path d="M1.06698 0.00257227L0.00631714 1.06323L14.9475 16.0044L16.0081 14.9437L1.06698 0.00257227Z" fill="black"/>
</svg>

<!-- This Source Code Form is subject to the terms of the Mozilla Public
   - License, v. 2.0. If a copy of the MPL was not distributed with this
   - file, You can obtain one at http://mozilla.org/MPL/2.0/. -->
<svg xmlns="http://www.w3.org/2000/svg" width="16" height="16" fill="context-fill" fill-opacity="context-fill-opacity" viewBox="0 0 16 16">
    <path d="M7.46 1.62 5.51 2.68 4.4 1.57 6.75.3c.74-.4 1.63-.4 2.37 0l4.85 2.61c.96.52 1.47 1.59 1.27 2.66l-.55 2.97c-.17.93-.45 1.76-.83 2.49L12.73 9.9c.21-.49.38-1.03.49-1.63l.55-2.98a1 1 0 0 0-.51-1.06L8.41 1.62a1.005 1.005 0 0 0-.95 0M8.5 14.37c1.37-.77 2.63-1.96 3.59-3.34v-.02l1.07 1.07c-1.07 1.47-2.43 2.74-3.92 3.58-.38.21-.81.32-1.24.32s-.86-.1-1.24-.32c-1.65-.93-3.16-2.36-4.26-4.03-.57-.86-.97-1.91-1.19-3.11L.75 5.5c-.19-1.07.31-2.13 1.27-2.65l1.23-.66L4.36 3.3l-1.62.88c-.38.2-.59.63-.51 1.06l.56 3.02c.19 1.01.51 1.87.97 2.56.97 1.47 2.3 2.74 3.74 3.55.31.18.69.17 1 0" />
    <path d="m1.067.003-1.06 1.06 14.94 14.941 1.061-1.06z" />
</svg>
